X:729
T:Frisky Frog, The
C:Nigel Gatherer
Z:Nigel Gatherer
M:4/4
L:1/4
K:D
G2 BG | F2 AF | EFGE | FD D2 :|
E2 GE | FG A2 | G2 BG | ABA2 |
B2 GB | AG F2 | EFGE | FD D2 ||
